day131/svg/history.svg

<svg height="512pt" viewBox="0 0 512 512.00111" width="512pt" xmlns="http://www.w3.org/2000/svg"><path d="m509.925781 495.90625-53.933593-70.164062c-1.679688-2.191407-4.191407-3.585938-6.941407-3.859376-36.589843-3.628906-56.125-11.398437-71.828125-17.644531-13.890625-5.523437-28.25-11.234375-46.78125-11.234375-28.226562 0-49.804687 15.050782-64.441406 32.109375v-.371093c8.152344-18.796876 29.882812-48.457032 63.640625-48.457032 14.523437 0 25.832031 4.5 38.9375 9.710938 10.933594 4.347656 24.542969 9.761718 44.4375 13.941406 5.40625 1.136719 10.707031-2.324219 11.84375-7.730469 1.132813-5.402343-2.328125-10.707031-7.730469-11.839843-18.214844-3.828126-30.402344-8.675782-41.164062-12.957032-13.75-5.46875-27.96875-11.125-46.324219-11.125-35.144531 0-59.878906 23.550782-73.640625 45-13.761719-21.449218-38.496094-45-73.644531-45-18.351563 0-32.574219 5.65625-46.328125 11.128906-15.519532 6.171876-34.835938 13.855469-71.015625 17.441407-5.496094.546875-9.507813 5.441406-8.964844 10.9375.546875 5.496093 5.445313 9.507812 10.941406 8.964843 38.976563-3.867187 60.625-12.476562 76.433594-18.761718 13.097656-5.210938 24.410156-9.710938 38.933594-9.710938 33.761719 0 55.496093 29.664063 63.644531 48.460938v.367187c-14.640625-17.058593-36.214844-32.113281-64.445312-32.113281-18.527344 0-32.890626 5.714844-46.789063 11.242188-15.695313 6.242187-35.226563 14.011718-71.820313 17.640624-2.746093.273438-5.257812 1.667969-6.941406 3.859376l-53.929687 70.164062c-2.324219 3.019531-2.726563 7.097656-1.042969 10.515625 1.683594 3.414063 5.160156 5.578125 8.96875 5.578125h492c3.808594 0 7.285156-2.164062 8.96875-5.578125 1.683594-3.417969 1.28125-7.496094-1.042969-10.515625zm-179.484375-82.90625c14.699219 0 26.140625 4.550781 39.398438 9.824219 15.375 6.117187 36.222656 14.40625 72.910156 18.503906l38.84375 50.535156c-66.832031-1.441406-98.550781-14.058593-119.960938-22.574219-12.425781-4.941406-20.632812-8.207031-31.191406-8.207031-18.480468 0-31.148437 13.871094-36.398437 25.785157-.046875.09375-.09375.1875-.140625.285156l-2.277344 4.847656h-25.625v-29.925781c8.242188-19.023438 30.246094-49.074219 64.441406-49.074219zm-261.191406 28.328125c36.6875-4.097656 57.53125-12.390625 72.917969-18.507813 13.246093-5.269531 24.691406-9.820312 39.386719-9.820312 34.195312 0 56.203124 30.050781 64.445312 49.074219v29.925781h-25.628906l-2.273438-4.847656c-.046875-.097656-.09375-.191406-.140625-.285156-5.253906-11.914063-17.917969-25.785157-36.398437-25.785157-10.558594 0-18.765625 3.265625-31.191406 8.207031-21.410157 8.515626-53.132813 21.132813-119.960938 22.574219zm88.511719 46.542969c11.007812-4.378906 17.070312-6.789063 23.792969-6.789063 8.628906 0 14.046874 6.789063 16.546874 10.917969h-50.921874c3.804687-1.433594 7.304687-2.824219 10.582031-4.128906zm156.136719 4.128906c2.5-4.128906 7.917968-10.917969 16.542968-10.917969 6.726563 0 12.789063 2.410157 23.800782 6.792969 3.273437 1.300781 6.777343 2.691406 10.578124 4.125zm0 0"/><path d="m444.65625 404.722656.363281.035156c.332031.03125.664063.050782.988281.050782 5.085938 0 9.433594-3.859375 9.941407-9.023438.539062-5.496094-3.476563-10.390625-8.972657-10.929687l-.355468-.035157c-5.496094-.546874-10.390625 3.472657-10.933594 8.96875-.542969 5.496094 3.472656 10.390626 8.96875 10.933594zm0 0"/><path d="m222.246094 246.039062c-2.597656.222657-5.023438 1.453126-6.734375 3.449219-1.902344 2.214844-2.738281 5.148438-2.296875 8.03125 4.144531 26.996094 18.511718 45.441407 39.488281 51.765625-.480469 3.78125-.925781 7.566406-1.324219 11.363282l-5.324218 50.777343c-.574219 5.492188 3.410156 10.414063 8.902343 10.988281.355469.039063.707031.054688 1.054688.054688 5.054687 0 9.394531-3.816406 9.933593-8.957031l5.324219-50.777344c.386719-3.691406.820313-7.367187 1.28125-11.035156 46.515625-.574219 74.914063-30.234375 89.128907-92.949219 1.582031-6.976562 3.5-15.101562 5.707031-24.152344.699219-2.867187.097656-5.894531-1.648438-8.277344-.648437-.882812-1.429687-1.644531-2.304687-2.261718l3.933594-2.25c2.363281-1.347656 4.074218-3.605469 4.734374-6.246094 17.472657-69.53125 43.050782-161.964844 43.308594-162.890625.863282-3.109375.171875-6.441406-1.855468-8.949219-2.023438-2.511718-5.148438-3.898437-8.355469-3.7031248-3.386719.1914068-83.722657 5.9960938-149.757813 113.4296878-.820312 1.332031-1.617187 2.652343-2.40625 3.976562-1.214844 2.023438-1.671875 4.414063-1.296875 6.742188l5.007813 30.832031h-16.980469c-4.007813 0-7.625 2.390625-9.199219 6.074219-10.707031 25.089843-16.859375 48.640625-18.289062 70.007812-.191406 2.839844.839844 5.628907 2.832031 7.664063zm131.5-79.480468-26.707032 15.261718c-3.828124 2.1875-5.773437 6.625-4.785156 10.921876.988282 4.296874 4.675782 7.441406 9.074219 7.738281l13.847656.929687c-1.101562 4.640625-2.105469 8.957032-3.003906 12.917969-14.433594 63.6875-41.089844 76.261719-66.691406 77.324219 14.671875-88.472656 51.800781-170.632813 108.609375-240.253906-8.726563 32.1875-20.636719 76.726562-30.34375 115.160156zm-107.296875 8.445312h22.050781c2.929688 0 5.714844-1.289062 7.617188-3.523437 1.898437-2.234375 2.722656-5.1875 2.253906-8.082031l-6.300782-38.808594c.132813-.222656.269532-.441406.40625-.664063 31.527344-51.292969 66.285157-76.820312 89.890626-89.203125 5.589843-2.933594 10.832031-5.28125 15.617187-7.171875-34.410156 39.953125-62.644531 84.613281-83.964844 132.898438-18.199219 41.210937-31.058593 84.367187-38.382812 128.671875-10.890625-4.460938-16.730469-14.007813-19.863281-23.121094h10.226562c4.027344 0 7.660156-2.414062 9.21875-6.125 1.558594-3.707031.742188-7.992188-2.074219-10.871094l-20.546875-20.984375c1.617188-16.25 6.265625-34.039062 13.851563-53.015625zm0 0"/></svg>

<?xml version="1.0" encoding="UTF-8"?>
<svg width="512px" height="512px" viewBox="0 0 512 512" version="1.1" xmlns="http://www.w3.org/2000/svg" xmlns:xlink="http://www.w3.org/1999/xlink">
    <!-- Generator: Sketch 53.2 (72643) - https://sketchapp.com -->
    <title>history</title>
    <desc>Created with Sketch.</desc>
    <g id="Page-1" stroke="none" stroke-width="1" fill="none" fill-rule="evenodd">
        <g id="history" fill="#BBBBBB" fill-rule="nonzero">
            <path d="M509.925781,495.90625 L455.992188,425.742188 C454.3125,423.550781 451.800781,422.15625 449.050781,421.882812 C412.460938,418.253906 392.925781,410.484375 377.222656,404.238281 C363.332031,398.714844 348.972656,393.003906 330.441406,393.003906 C302.214844,393.003906 280.636719,408.054688 266,425.113281 L266,424.742188 C274.152344,405.945312 295.882812,376.285156 329.640625,376.285156 C344.164062,376.285156 355.472656,380.785156 368.578125,385.996094 C379.511719,390.34375 393.121094,395.757812 413.015625,399.9375 C418.421875,401.074219 423.722656,397.613281 424.859375,392.207031 C425.992188,386.804688 422.53125,381.5 417.128906,380.367188 C398.914062,376.539062 386.726562,371.691406 375.964844,367.410156 C362.214844,361.941406 347.996094,356.285156 329.640625,356.285156 C294.496094,356.285156 269.761719,379.835938 256,401.285156 C242.238281,379.835938 217.503906,356.285156 182.355469,356.285156 C164.003906,356.285156 149.78125,361.941406 136.027344,367.414062 C120.507812,373.585938 101.191406,381.269531 65.011719,384.855469 C59.515625,385.402344 55.503906,390.296875 56.046875,395.792969 C56.59375,401.289062 61.492188,405.300781 66.988281,404.757812 C105.964844,400.890625 127.613281,392.28125 143.421875,385.996094 C156.519531,380.785156 167.832031,376.285156 182.355469,376.285156 C216.117188,376.285156 237.851562,405.949219 246,424.746094 L246,425.113281 C231.359375,408.054688 209.785156,393 181.554688,393 C163.027344,393 148.664062,398.714844 134.765625,404.242188 C119.070312,410.484375 99.539062,418.253906 62.945312,421.882812 C60.199219,422.15625 57.6875,423.550781 56.003906,425.742188 L2.074219,495.90625 C-0.25,498.925781 -0.652344,503.003906 1.03125,506.421875 C2.714844,509.835938 6.191406,512 10,512 L502,512 C505.808594,512 509.285156,509.835938 510.96875,506.421875 C512.652344,503.003906 512.25,498.925781 509.925781,495.90625 L509.925781,495.90625 Z M330.441406,413 C345.140625,413 356.582031,417.550781 369.839844,422.824219 C385.214844,428.941406 406.0625,437.230469 442.75,441.328125 L481.59375,491.863281 C414.761719,490.421875 383.042969,477.804688 361.632812,469.289062 C349.207031,464.347656 341,461.082031 330.441406,461.082031 C311.960938,461.082031 299.292969,474.953125 294.042969,486.867188 C293.996094,486.960938 293.949219,487.054688 293.902344,487.152344 L291.625,492 L266,492 L266,462.074219 C274.242188,443.050781 296.246094,413 330.441406,413 L330.441406,413 Z M69.25,441.328125 C105.9375,437.230469 126.78125,428.9375 142.167969,422.820312 C155.414062,417.550781 166.859375,413 181.554688,413 C215.75,413 237.757812,443.050781 246,462.074219 L246,492 L220.371094,492 L218.097656,487.152344 C218.050781,487.054688 218.003906,486.960938 217.957031,486.867188 C212.703125,474.953125 200.039062,461.082031 181.558594,461.082031 C171,461.082031 162.792969,464.347656 150.367188,469.289062 C128.957031,477.804688 97.234375,490.421875 30.40625,491.863281 L69.25,441.328125 Z M157.761719,487.871094 C168.769531,483.492188 174.832031,481.082031 181.554688,481.082031 C190.183594,481.082031 195.601562,487.871094 198.101562,492 L147.179688,492 C150.984375,490.566406 154.484375,489.175781 157.761719,487.871094 L157.761719,487.871094 Z M313.898438,492 C316.398438,487.871094 321.816406,481.082031 330.441406,481.082031 C337.167969,481.082031 343.230469,483.492188 354.242188,487.875 C357.515625,489.175781 361.019531,490.566406 364.820312,492 L313.898438,492 Z" id="Shape"></path>
            <path d="M444.65625,404.722656 L445.019531,404.757812 C445.351562,404.789062 445.683594,404.808594 446.007812,404.808594 C451.09375,404.808594 455.441406,400.949219 455.949219,395.785156 C456.488281,390.289062 452.472656,385.394531 446.976562,384.855469 L446.621094,384.820312 C441.125,384.273438 436.230469,388.292969 435.6875,393.789062 C435.144531,399.285156 439.160156,404.179688 444.65625,404.722656 L444.65625,404.722656 Z" id="Path"></path>
            <path d="M222.246094,246.039062 C219.648438,246.261719 217.222656,247.492188 215.511719,249.488281 C213.609375,251.703125 212.773438,254.636719 213.214844,257.519531 C217.359375,284.515625 231.726562,302.960938 252.703125,309.285156 C252.222656,313.066406 251.777344,316.851562 251.378906,320.648438 L246.054688,371.425781 C245.480469,376.917969 249.464844,381.839844 254.957031,382.414062 C255.3125,382.453125 255.664062,382.46875 256.011719,382.46875 C261.066406,382.46875 265.40625,378.652344 265.945312,373.511719 L271.269531,322.734375 C271.65625,319.042969 272.089844,315.367188 272.550781,311.699219 C319.066406,311.125 347.464844,281.464844 361.679688,218.75 C363.261719,211.773438 365.179688,203.648438 367.386719,194.597656 C368.085938,191.730469 367.484375,188.703125 365.738281,186.320312 C365.089844,185.4375 364.308594,184.675781 363.433594,184.058594 L367.367188,181.808594 C369.730469,180.460938 371.441406,178.203125 372.101562,175.5625 C389.574219,106.03125 415.152344,13.597656 415.410156,12.671875 C416.273438,9.5625 415.582031,6.230469 413.554688,3.722656 C411.53125,1.210938 408.40625,-0.175781 405.199219,0.0195312 C401.8125,0.210938 321.476562,6.015625 255.441406,113.449219 C254.621094,114.78125 253.824219,116.101562 253.035156,117.425781 C251.820312,119.449219 251.363281,121.839844 251.738281,124.167969 L256.746094,155 L239.765625,155 C235.757812,155 232.140625,157.390625 230.566406,161.074219 C219.859375,186.164062 213.707031,209.714844 212.277344,231.082031 C212.085938,233.921875 213.117188,236.710938 215.109375,238.746094 L222.246094,246.039062 Z M353.746094,166.558594 L327.039062,181.820312 C323.210938,184.007812 321.265625,188.445312 322.253906,192.742188 C323.242188,197.039062 326.929688,200.183594 331.328125,200.480469 L345.175781,201.410156 C344.074219,206.050781 343.070312,210.367188 342.171875,214.328125 C327.738281,278.015625 301.082031,290.589844 275.480469,291.652344 C290.152344,203.179688 327.28125,121.019531 384.089844,51.398438 C375.363281,83.585938 363.453125,128.125 353.746094,166.558594 L353.746094,166.558594 Z M246.449219,175.003906 L268.5,175.003906 C271.429688,175.003906 274.214844,173.714844 276.117188,171.480469 C278.015625,169.246094 278.839844,166.292969 278.371094,163.398438 L272.070312,124.589844 C272.203125,124.367188 272.339844,124.148438 272.476562,123.925781 C304.003906,72.632812 338.761719,47.105469 362.367188,34.722656 C367.957031,31.789062 373.199219,29.441406 377.984375,27.550781 C343.574219,67.503906 315.339844,112.164062 294.019531,160.449219 C275.820312,201.660156 262.960938,244.816406 255.636719,289.121094 C244.746094,284.660156 238.90625,275.113281 235.773438,266 L246,266 C250.027344,266 253.660156,263.585938 255.21875,259.875 C256.777344,256.167969 255.960938,251.882812 253.144531,249.003906 L232.597656,228.019531 C234.214844,211.769531 238.863281,193.980469 246.449219,175.003906 L246.449219,175.003906 Z" id="Shape"></path>
        </g>
    </g>
</svg>
